report_00007_2020-12-11T15:55:29.892Z/server-response-time/comparison/sorted/5_vs_6.svg

<svg width="640" height="500" xmlns="http://www.w3.org/2000/svg" xmlns:xlink="http://www.w3.org/1999/xlink"><path fill="#fff" d="M0 0h640v500H0z"/><defs><path id="d" stroke-width=".222" stroke="currentColor" d="M-1-1h2v2h-2z"/><path id="b" stroke-width=".222" stroke="currentColor" d="M0-1.33l-1.33 2h2.66z"/><path id="f" stroke-width=".222" stroke="currentColor" d="M0 1.33L1.265.411.782-1.067l-1.564-.009-.483 1.487z"/><use xlink:href="#b" id="c" stroke="currentColor" transform="rotate(180)"/><use xlink:href="#d" id="e" stroke="currentColor" transform="rotate(45)"/><circle id="a" stroke-width=".222" stroke="currentColor" cx="0" cy="0" r="1"/></defs><g fill="none" color="#000" stroke="currentColor"><path stroke="#000" d="M53.9 386.5h9m552.1 0h-9"/><text transform="translate(45.6 390.4)" stroke="none" fill="#000" font-family="Arial" font-size="12" text-anchor="end"><tspan>1.4</tspan></text></g><g fill="none" color="#000" stroke="currentColor"><path stroke="#000" d="M53.9 336.4h9m552.1 0h-9"/><text transform="translate(45.6 340.3)" stroke="none" fill="#000" font-family="Arial" font-size="12" text-anchor="end"><tspan>1.6</tspan></text></g><g fill="none" color="#000" stroke="currentColor"><path stroke="#000" d="M53.9 286.2h9m552.1 0h-9"/><text transform="translate(45.6 290.1)" stroke="none" fill="#000" font-family="Arial" font-size="12" text-anchor="end"><tspan>1.8</tspan></text></g><g fill="none" color="#000" stroke="currentColor"><path stroke="#000" d="M53.9 236.1h9m552.1 0h-9"/><text transform="translate(45.6 240)" stroke="none" fill="#000" font-family="Arial" font-size="12" text-anchor="end"><tspan>2</tspan></text></g><g fill="none" color="#000" stroke="currentColor"><path stroke="#000" d="M53.9 185.9h9m552.1 0h-9"/><text transform="translate(45.6 189.8)" stroke="none" fill="#000" font-family="Arial" font-size="12" text-anchor="end"><tspan>2.2</tspan></text></g><g fill="none" color="#000" stroke="currentColor"><path stroke="#000" d="M53.9 135.8h9m552.1 0h-9"/><text transform="translate(45.6 139.7)" stroke="none" fill="#000" font-family="Arial" font-size="12" text-anchor="end"><tspan>2.4</tspan></text></g><g fill="none" color="#000" stroke="currentColor"><path stroke="#000" d="M53.9 85.7h9m552.1 0h-9"/><text transform="translate(45.6 89.6)" stroke="none" fill="#000" font-family="Arial" font-size="12" text-anchor="end"><tspan>2.6</tspan></text></g><g fill="none" color="#000" stroke="currentColor"><path stroke="#000" d="M53.9 35.5h9m552.1 0h-9"/><text transform="translate(45.6 39.4)" stroke="none" fill="#000" font-family="Arial" font-size="12" text-anchor="end"><tspan>2.8</tspan></text></g><g fill="none" color="#000" stroke="currentColor"><path stroke="#000" d="M53.9 428v-9m0-400.9v9"/><text transform="translate(53.9 449.9)" stroke="none" fill="#000" font-family="Arial" font-size="12" text-anchor="middle"><tspan>0</tspan></text></g><g fill="none" color="#000" stroke="currentColor"><path stroke="#000" d="M110.6 428v-9m0-400.9v9"/><text transform="translate(110.6 449.9)" stroke="none" fill="#000" font-family="Arial" font-size="12" text-anchor="middle"><tspan>10</tspan></text></g><g fill="none" color="#000" stroke="currentColor"><path stroke="#000" d="M167.3 428v-9m0-400.9v9"/><text transform="translate(167.3 449.9)" stroke="none" fill="#000" font-family="Arial" font-size="12" text-anchor="middle"><tspan>20</tspan></text></g><g fill="none" color="#000" stroke="currentColor"><path stroke="#000" d="M223.9 428v-9m0-400.9v9"/><text transform="translate(223.9 449.9)" stroke="none" fill="#000" font-family="Arial" font-size="12" text-anchor="middle"><tspan>30</tspan></text></g><g fill="none" color="#000" stroke="currentColor"><path stroke="#000" d="M280.6 428v-9m0-400.9v9"/><text transform="translate(280.6 449.9)" stroke="none" fill="#000" font-family="Arial" font-size="12" text-anchor="middle"><tspan>40</tspan></text></g><g fill="none" color="#000" stroke="currentColor"><path stroke="#000" d="M337.3 428v-9m0-400.9v9"/><text transform="translate(337.3 449.9)" stroke="none" fill="#000" font-family="Arial" font-size="12" text-anchor="middle"><tspan>50</tspan></text></g><g fill="none" color="#000" stroke="currentColor"><path stroke="#000" d="M394 428v-9m0-400.9v9"/><text transform="translate(394 449.9)" stroke="none" fill="#000" font-family="Arial" font-size="12" text-anchor="middle"><tspan>60</tspan></text></g><g fill="none" color="#000" stroke="currentColor"><path stroke="#000" d="M450.6 428v-9m0-400.9v9"/><text transform="translate(450.6 449.9)" stroke="none" fill="#000" font-family="Arial" font-size="12" text-anchor="middle"><tspan>70</tspan></text></g><g fill="none" color="#000" stroke="currentColor"><path stroke="#000" d="M507.3 428v-9m0-400.9v9"/><text transform="translate(507.3 449.9)" stroke="none" fill="#000" font-family="Arial" font-size="12" text-anchor="middle"><tspan>80</tspan></text></g><g fill="none" color="#000" stroke="currentColor"><path stroke="#000" d="M564 428v-9m0-400.9v9"/><text transform="translate(564 449.9)" stroke="none" fill="#000" font-family="Arial" font-size="12" text-anchor="middle"><tspan>90</tspan></text></g><path stroke="#000" d="M53.9 18.1V428H615V18.1H53.9z" fill="none" color="#000"/><text transform="translate(433.7 467.9)" stroke="none" fill="#000" font-family="Arial" font-size="12" text-anchor="end" color="#000"><tspan>pages+cached+noexternal</tspan></text><path stroke="#9400D3" d="M442 464h42.2M53.9 418.1l5.7-9 5.6-6h5.7l5.7-.8 5.6-6.5 5.7-1 5.7-1.8 5.6-1.5 5.7-1.5h5.7l5.6-2h5.7l5.7-.7 5.6-2.8 5.7-2.5 5.7-2.2 5.7-3.3 5.6-.5 5.7-1.8 5.7-1.5 5.6-.7 5.7-.5 5.7-.5 5.6-.8 5.7-15.3 5.7-7.7 5.6-2 5.7-6.6 5.7-.2 5.6-2.5 5.7-3 5.7-.8 5.6-1.7 5.7-.5 5.7-.5 5.6-1.5 5.7-3.6 5.7-4.5 5.6-.5 5.7-4.2 5.7-2 5.6-.5h5.7l5.7-.5 5.6-4.1 5.7-.2 5.7-4 5.6-4 5.7-1.8 5.7-.5 5.7-3 5.6-2.8 5.7-.7 5.7-1.8 5.6-1.7 5.7-3.8 5.7-2h5.6l5.7-2 5.7-.2 5.6-4.3 5.7-.8h5.7l5.6-.7 5.7-16.6 5.7-5 5.6-3.7 5.7-.5 5.7-3.3 5.6-2.5 5.7-1 5.7-.2 5.6-3.3 5.7-.5 5.7-10 5.6-2.3 5.7-6 5.7-4.3 5.6-2.2 5.7-1.5 5.7-.3 5.6-1 5.7-.5 5.7-1.7 5.7-8.3 5.6-.8 5.7-4.5 5.7-.7 5.6-1.5 5.7-6.1 5.7-1.2 5.6-9.5 5.7-11.6 5.7-2.5 5.6-17 5.7-2.3 5.7-8.3 5.6-61.6L615 26" fill="none" color="#000"/><text transform="translate(433.7 485.9)" stroke="none" fill="#000" font-family="Arial" font-size="12" text-anchor="end" color="#000"><tspan>pages+cached+noexternal+nofonts</tspan></text><path stroke="#009E73" d="M442 482h42.2M53.9 420.1l5.7-1.5 5.6-1.5 5.7-4.8h5.7l5.6-1.5 5.7-2.2h5.7l5.6-3.8 5.7-2.5 5.7-.7 5.6-.5 5.7-.3 5.7-.2 5.6-2 5.7-.8 5.7-1 5.7-.3 5.6-1.5 5.7-1.7 5.7-1h5.6l5.7-.3h11.3l5.7-3 5.7-.7 5.6-.3 5.7-1.5 5.7-2.2 5.6-3.5 5.7-.3 5.7-8.5 5.6-1.8 5.7-.5 5.7-.5 5.6-3.2 5.7-.5 5.7-2.8 5.6-.8 5.7-3 5.7-16.3 5.6-3.7 5.7-1.5 5.7-1.8 5.6-3.5 5.7-5 5.7-1.8 5.6-1 5.7-1.2 5.7-.5 5.7-.8 5.6-2 5.7-7 5.7-1.5 5.6-2.5h5.7l5.7-.8 5.6-1h5.7l5.7-.2 5.6-.3 5.7-3.5 5.7-1.2 5.6-2.5 5.7-2.3h5.7l5.6-4.2 5.7-.6h5.7l5.6-7.5 5.7-.7 5.7-2.3 5.6-.5 5.7-4.5 5.7-4.5 5.6-2.5h5.7l5.7-1.5 5.6-6 5.7-.5 5.7-.5 5.6-1.3 5.7-2.3 5.7-.2h5.7l5.6-15.8 5.7-1.5 5.7-1 5.6-3 5.7-.3 5.7-22.5 5.6-7.8 5.7-11.3 5.7-.7 5.6-7.1 5.7-.5 5.7-1.2 5.6-42.1 5.7-62.5" fill="none" color="#000"/><g fill="none" color="#000" stroke="currentColor"><path stroke="#000" d="M53.9 18.1V428H615V18.1H53.9z"/></g></svg>

<?xml version="1.0" encoding="utf-8"  standalone="no"?>
<svg 
 width="640" height="500"
 viewBox="0 0 640 500"
 xmlns="http://www.w3.org/2000/svg"
 xmlns:xlink="http://www.w3.org/1999/xlink"
>

<title>Gnuplot</title>
<desc>Produced by GNUPLOT 5.4 patchlevel 0 </desc>

<g id="gnuplot_canvas">

<rect x="0" y="0" width="640" height="500" fill="#ffffff"/>
<defs>

	<circle id='gpDot' r='0.5' stroke-width='0.5' stroke='currentColor'/>
	<path id='gpPt0' stroke-width='0.222' stroke='currentColor' d='M-1,0 h2 M0,-1 v2'/>
	<path id='gpPt1' stroke-width='0.222' stroke='currentColor' d='M-1,-1 L1,1 M1,-1 L-1,1'/>
	<path id='gpPt2' stroke-width='0.222' stroke='currentColor' d='M-1,0 L1,0 M0,-1 L0,1 M-1,-1 L1,1 M-1,1 L1,-1'/>
	<rect id='gpPt3' stroke-width='0.222' stroke='currentColor' x='-1' y='-1' width='2' height='2'/>
	<rect id='gpPt4' stroke-width='0.222' stroke='currentColor' fill='currentColor' x='-1' y='-1' width='2' height='2'/>
	<circle id='gpPt5' stroke-width='0.222' stroke='currentColor' cx='0' cy='0' r='1'/>
	<use xlink:href='#gpPt5' id='gpPt6' fill='currentColor' stroke='none'/>
	<path id='gpPt7' stroke-width='0.222' stroke='currentColor' d='M0,-1.33 L-1.33,0.67 L1.33,0.67 z'/>
	<use xlink:href='#gpPt7' id='gpPt8' fill='currentColor' stroke='none'/>
	<use xlink:href='#gpPt7' id='gpPt9' stroke='currentColor' transform='rotate(180)'/>
	<use xlink:href='#gpPt9' id='gpPt10' fill='currentColor' stroke='none'/>
	<use xlink:href='#gpPt3' id='gpPt11' stroke='currentColor' transform='rotate(45)'/>
	<use xlink:href='#gpPt11' id='gpPt12' fill='currentColor' stroke='none'/>
	<path id='gpPt13' stroke-width='0.222' stroke='currentColor' d='M0,1.330 L1.265,0.411 L0.782,-1.067 L-0.782,-1.076 L-1.265,0.411 z'/>
	<use xlink:href='#gpPt13' id='gpPt14' fill='currentColor' stroke='none'/>
	<filter id='textbox' filterUnits='objectBoundingBox' x='0' y='0' height='1' width='1'>
	  <feFlood flood-color='#FFFFFF' flood-opacity='1' result='bgnd'/>
	  <feComposite in='SourceGraphic' in2='bgnd' operator='atop'/>
	</filter>
	<filter id='greybox' filterUnits='objectBoundingBox' x='0' y='0' height='1' width='1'>
	  <feFlood flood-color='lightgrey' flood-opacity='1' result='grey'/>
	  <feComposite in='SourceGraphic' in2='grey' operator='atop'/>
	</filter>
</defs>
<g fill="none" color="#FFFFFF" stroke="black" stroke-width="1.00" stroke-linecap="butt" stroke-linejoin="miter">
</g>
<g fill="none" color="black" stroke="currentColor" stroke-width="1.00" stroke-linecap="butt" stroke-linejoin="miter">
	<path stroke='black'  d='M53.9,386.5 L62.9,386.5 M615.0,386.5 L606.0,386.5  '/>	<g transform="translate(45.6,390.4)" stroke="none" fill="black" font-family="Arial" font-size="12.00"  text-anchor="end">
		<text><tspan font-family="Arial" > 1.4</tspan></text>
	</g>
</g>
<g fill="none" color="black" stroke="currentColor" stroke-width="1.00" stroke-linecap="butt" stroke-linejoin="miter">
	<path stroke='black'  d='M53.9,336.4 L62.9,336.4 M615.0,336.4 L606.0,336.4  '/>	<g transform="translate(45.6,340.3)" stroke="none" fill="black" font-family="Arial" font-size="12.00"  text-anchor="end">
		<text><tspan font-family="Arial" > 1.6</tspan></text>
	</g>
</g>
<g fill="none" color="black" stroke="currentColor" stroke-width="1.00" stroke-linecap="butt" stroke-linejoin="miter">
	<path stroke='black'  d='M53.9,286.2 L62.9,286.2 M615.0,286.2 L606.0,286.2  '/>	<g transform="translate(45.6,290.1)" stroke="none" fill="black" font-family="Arial" font-size="12.00"  text-anchor="end">
		<text><tspan font-family="Arial" > 1.8</tspan></text>
	</g>
</g>
<g fill="none" color="black" stroke="currentColor" stroke-width="1.00" stroke-linecap="butt" stroke-linejoin="miter">
	<path stroke='black'  d='M53.9,236.1 L62.9,236.1 M615.0,236.1 L606.0,236.1  '/>	<g transform="translate(45.6,240.0)" stroke="none" fill="black" font-family="Arial" font-size="12.00"  text-anchor="end">
		<text><tspan font-family="Arial" > 2</tspan></text>
	</g>
</g>
<g fill="none" color="black" stroke="currentColor" stroke-width="1.00" stroke-linecap="butt" stroke-linejoin="miter">
	<path stroke='black'  d='M53.9,185.9 L62.9,185.9 M615.0,185.9 L606.0,185.9  '/>	<g transform="translate(45.6,189.8)" stroke="none" fill="black" font-family="Arial" font-size="12.00"  text-anchor="end">
		<text><tspan font-family="Arial" > 2.2</tspan></text>
	</g>
</g>
<g fill="none" color="black" stroke="currentColor" stroke-width="1.00" stroke-linecap="butt" stroke-linejoin="miter">
	<path stroke='black'  d='M53.9,135.8 L62.9,135.8 M615.0,135.8 L606.0,135.8  '/>	<g transform="translate(45.6,139.7)" stroke="none" fill="black" font-family="Arial" font-size="12.00"  text-anchor="end">
		<text><tspan font-family="Arial" > 2.4</tspan></text>
	</g>
</g>
<g fill="none" color="black" stroke="currentColor" stroke-width="1.00" stroke-linecap="butt" stroke-linejoin="miter">
	<path stroke='black'  d='M53.9,85.7 L62.9,85.7 M615.0,85.7 L606.0,85.7  '/>	<g transform="translate(45.6,89.6)" stroke="none" fill="black" font-family="Arial" font-size="12.00"  text-anchor="end">
		<text><tspan font-family="Arial" > 2.6</tspan></text>
	</g>
</g>
<g fill="none" color="black" stroke="currentColor" stroke-width="1.00" stroke-linecap="butt" stroke-linejoin="miter">
	<path stroke='black'  d='M53.9,35.5 L62.9,35.5 M615.0,35.5 L606.0,35.5  '/>	<g transform="translate(45.6,39.4)" stroke="none" fill="black" font-family="Arial" font-size="12.00"  text-anchor="end">
		<text><tspan font-family="Arial" > 2.8</tspan></text>
	</g>
</g>
<g fill="none" color="black" stroke="currentColor" stroke-width="1.00" stroke-linecap="butt" stroke-linejoin="miter">
	<path stroke='black'  d='M53.9,428.0 L53.9,419.0 M53.9,18.1 L53.9,27.1  '/>	<g transform="translate(53.9,449.9)" stroke="none" fill="black" font-family="Arial" font-size="12.00"  text-anchor="middle">
		<text><tspan font-family="Arial" > 0</tspan></text>
	</g>
</g>
<g fill="none" color="black" stroke="currentColor" stroke-width="1.00" stroke-linecap="butt" stroke-linejoin="miter">
	<path stroke='black'  d='M110.6,428.0 L110.6,419.0 M110.6,18.1 L110.6,27.1  '/>	<g transform="translate(110.6,449.9)" stroke="none" fill="black" font-family="Arial" font-size="12.00"  text-anchor="middle">
		<text><tspan font-family="Arial" > 10</tspan></text>
	</g>
</g>
<g fill="none" color="black" stroke="currentColor" stroke-width="1.00" stroke-linecap="butt" stroke-linejoin="miter">
	<path stroke='black'  d='M167.3,428.0 L167.3,419.0 M167.3,18.1 L167.3,27.1  '/>	<g transform="translate(167.3,449.9)" stroke="none" fill="black" font-family="Arial" font-size="12.00"  text-anchor="middle">
		<text><tspan font-family="Arial" > 20</tspan></text>
	</g>
</g>
<g fill="none" color="black" stroke="currentColor" stroke-width="1.00" stroke-linecap="butt" stroke-linejoin="miter">
	<path stroke='black'  d='M223.9,428.0 L223.9,419.0 M223.9,18.1 L223.9,27.1  '/>	<g transform="translate(223.9,449.9)" stroke="none" fill="black" font-family="Arial" font-size="12.00"  text-anchor="middle">
		<text><tspan font-family="Arial" > 30</tspan></text>
	</g>
</g>
<g fill="none" color="black" stroke="currentColor" stroke-width="1.00" stroke-linecap="butt" stroke-linejoin="miter">
	<path stroke='black'  d='M280.6,428.0 L280.6,419.0 M280.6,18.1 L280.6,27.1  '/>	<g transform="translate(280.6,449.9)" stroke="none" fill="black" font-family="Arial" font-size="12.00"  text-anchor="middle">
		<text><tspan font-family="Arial" > 40</tspan></text>
	</g>
</g>
<g fill="none" color="black" stroke="currentColor" stroke-width="1.00" stroke-linecap="butt" stroke-linejoin="miter">
	<path stroke='black'  d='M337.3,428.0 L337.3,419.0 M337.3,18.1 L337.3,27.1  '/>	<g transform="translate(337.3,449.9)" stroke="none" fill="black" font-family="Arial" font-size="12.00"  text-anchor="middle">
		<text><tspan font-family="Arial" > 50</tspan></text>
	</g>
</g>
<g fill="none" color="black" stroke="currentColor" stroke-width="1.00" stroke-linecap="butt" stroke-linejoin="miter">
	<path stroke='black'  d='M394.0,428.0 L394.0,419.0 M394.0,18.1 L394.0,27.1  '/>	<g transform="translate(394.0,449.9)" stroke="none" fill="black" font-family="Arial" font-size="12.00"  text-anchor="middle">
		<text><tspan font-family="Arial" > 60</tspan></text>
	</g>
</g>
<g fill="none" color="black" stroke="currentColor" stroke-width="1.00" stroke-linecap="butt" stroke-linejoin="miter">
	<path stroke='black'  d='M450.6,428.0 L450.6,419.0 M450.6,18.1 L450.6,27.1  '/>	<g transform="translate(450.6,449.9)" stroke="none" fill="black" font-family="Arial" font-size="12.00"  text-anchor="middle">
		<text><tspan font-family="Arial" > 70</tspan></text>
	</g>
</g>
<g fill="none" color="black" stroke="currentColor" stroke-width="1.00" stroke-linecap="butt" stroke-linejoin="miter">
	<path stroke='black'  d='M507.3,428.0 L507.3,419.0 M507.3,18.1 L507.3,27.1  '/>	<g transform="translate(507.3,449.9)" stroke="none" fill="black" font-family="Arial" font-size="12.00"  text-anchor="middle">
		<text><tspan font-family="Arial" > 80</tspan></text>
	</g>
</g>
<g fill="none" color="black" stroke="currentColor" stroke-width="1.00" stroke-linecap="butt" stroke-linejoin="miter">
	<path stroke='black'  d='M564.0,428.0 L564.0,419.0 M564.0,18.1 L564.0,27.1  '/>	<g transform="translate(564.0,449.9)" stroke="none" fill="black" font-family="Arial" font-size="12.00"  text-anchor="middle">
		<text><tspan font-family="Arial" > 90</tspan></text>
	</g>
</g>
<g fill="none" color="black" stroke="currentColor" stroke-width="1.00" stroke-linecap="butt" stroke-linejoin="miter">
</g>
<g fill="none" color="black" stroke="currentColor" stroke-width="1.00" stroke-linecap="butt" stroke-linejoin="miter">
	<path stroke='black'  d='M53.9,18.1 L53.9,428.0 L615.0,428.0 L615.0,18.1 L53.9,18.1 Z  '/></g>
<g fill="none" color="black" stroke="currentColor" stroke-width="1.00" stroke-linecap="butt" stroke-linejoin="miter">
</g>
	<g id="gnuplot_plot_1" ><title>pages+cached+noexternal</title>
<g fill="none" color="black" stroke="currentColor" stroke-width="1.00" stroke-linecap="butt" stroke-linejoin="miter">
	<g transform="translate(433.7,467.9)" stroke="none" fill="black" font-family="Arial" font-size="12.00"  text-anchor="end">
		<text><tspan font-family="Arial" >pages+cached+noexternal</tspan></text>
	</g>
</g>
<g fill="none" color="black" stroke="currentColor" stroke-width="1.00" stroke-linecap="butt" stroke-linejoin="miter">
	<path stroke='rgb(148,   0, 211)'  d='M442.0,464.0 L484.2,464.0 M53.9,418.1 L59.6,409.1 L65.2,403.1 L70.9,403.1 L76.6,402.3 L82.2,395.8
		L87.9,394.8 L93.6,393.0 L99.2,391.5 L104.9,390.0 L110.6,390.0 L116.2,388.0 L121.9,388.0 L127.6,387.3
		L133.2,384.5 L138.9,382.0 L144.6,379.8 L150.3,376.5 L155.9,376.0 L161.6,374.2 L167.3,372.7 L172.9,372.0
		L178.6,371.5 L184.3,371.0 L189.9,370.2 L195.6,354.9 L201.3,347.2 L206.9,345.2 L212.6,338.6 L218.3,338.4
		L223.9,335.9 L229.6,332.9 L235.3,332.1 L240.9,330.4 L246.6,329.9 L252.3,329.4 L257.9,327.9 L263.6,324.3
		L269.3,319.8 L274.9,319.3 L280.6,315.1 L286.3,313.1 L291.9,312.6 L297.6,312.6 L303.3,312.1 L308.9,308.0
		L314.6,307.8 L320.3,303.8 L325.9,299.8 L331.6,298.0 L337.3,297.5 L343.0,294.5 L348.6,291.7 L354.3,291.0
		L360.0,289.2 L365.6,287.5 L371.3,283.7 L377.0,281.7 L382.6,281.7 L388.3,279.7 L394.0,279.5 L399.6,275.2
		L405.3,274.4 L411.0,274.4 L416.6,273.7 L422.3,257.1 L428.0,252.1 L433.6,248.4 L439.3,247.9 L445.0,244.6
		L450.6,242.1 L456.3,241.1 L462.0,240.9 L467.6,237.6 L473.3,237.1 L479.0,227.1 L484.6,224.8 L490.3,218.8
		L496.0,214.5 L501.6,212.3 L507.3,210.8 L513.0,210.5 L518.6,209.5 L524.3,209.0 L530.0,207.3 L535.7,199.0
		L541.3,198.2 L547.0,193.7 L552.7,193.0 L558.3,191.5 L564.0,185.4 L569.7,184.2 L575.3,174.7 L581.0,163.1
		L586.7,160.6 L592.3,143.6 L598.0,141.3 L603.7,133.0 L609.3,71.4 L615.0,26.0  '/></g>
	</g>
	<g id="gnuplot_plot_2" ><title>pages+cached+noexternal+nofonts</title>
<g fill="none" color="black" stroke="currentColor" stroke-width="1.00" stroke-linecap="butt" stroke-linejoin="miter">
	<g transform="translate(433.7,485.9)" stroke="none" fill="black" font-family="Arial" font-size="12.00"  text-anchor="end">
		<text><tspan font-family="Arial" >pages+cached+noexternal+nofonts</tspan></text>
	</g>
</g>
<g fill="none" color="black" stroke="currentColor" stroke-width="1.00" stroke-linecap="butt" stroke-linejoin="miter">
	<path stroke='rgb(  0, 158, 115)'  d='M442.0,482.0 L484.2,482.0 M53.9,420.1 L59.6,418.6 L65.2,417.1 L70.9,412.3 L76.6,412.3 L82.2,410.8
		L87.9,408.6 L93.6,408.6 L99.2,404.8 L104.9,402.3 L110.6,401.6 L116.2,401.1 L121.9,400.8 L127.6,400.6
		L133.2,398.6 L138.9,397.8 L144.6,396.8 L150.3,396.5 L155.9,395.0 L161.6,393.3 L167.3,392.3 L172.9,392.3
		L178.6,392.0 L184.3,392.0 L189.9,392.0 L195.6,389.0 L201.3,388.3 L206.9,388.0 L212.6,386.5 L218.3,384.3
		L223.9,380.8 L229.6,380.5 L235.3,372.0 L240.9,370.2 L246.6,369.7 L252.3,369.2 L257.9,366.0 L263.6,365.5
		L269.3,362.7 L274.9,361.9 L280.6,358.9 L286.3,342.6 L291.9,338.9 L297.6,337.4 L303.3,335.6 L308.9,332.1
		L314.6,327.1 L320.3,325.3 L325.9,324.3 L331.6,323.1 L337.3,322.6 L343.0,321.8 L348.6,319.8 L354.3,312.8
		L360.0,311.3 L365.6,308.8 L371.3,308.8 L377.0,308.0 L382.6,307.0 L388.3,307.0 L394.0,306.8 L399.6,306.5
		L405.3,303.0 L411.0,301.8 L416.6,299.3 L422.3,297.0 L428.0,297.0 L433.6,292.8 L439.3,292.2 L445.0,292.2
		L450.6,284.7 L456.3,284.0 L462.0,281.7 L467.6,281.2 L473.3,276.7 L479.0,272.2 L484.6,269.7 L490.3,269.7
		L496.0,268.2 L501.6,262.2 L507.3,261.7 L513.0,261.2 L518.6,259.9 L524.3,257.6 L530.0,257.4 L535.7,257.4
		L541.3,241.6 L547.0,240.1 L552.7,239.1 L558.3,236.1 L564.0,235.8 L569.7,213.3 L575.3,205.5 L581.0,194.2
		L586.7,193.5 L592.3,186.4 L598.0,185.9 L603.7,184.7 L609.3,142.6 L615.0,80.1  '/></g>
	</g>
<g fill="none" color="#FFFFFF" stroke="rgb(  0, 158, 115)" stroke-width="2.00" stroke-linecap="butt" stroke-linejoin="miter">
</g>
<g fill="none" color="black" stroke="currentColor" stroke-width="2.00" stroke-linecap="butt" stroke-linejoin="miter">
</g>
<g fill="none" color="black" stroke="black" stroke-width="1.00" stroke-linecap="butt" stroke-linejoin="miter">
</g>
<g fill="none" color="black" stroke="currentColor" stroke-width="1.00" stroke-linecap="butt" stroke-linejoin="miter">
	<path stroke='black'  d='M53.9,18.1 L53.9,428.0 L615.0,428.0 L615.0,18.1 L53.9,18.1 Z  '/></g>
<g fill="none" color="black" stroke="currentColor" stroke-width="1.00" stroke-linecap="butt" stroke-linejoin="miter">
</g>
</g>
</svg>
